packages/kaspersky-hexa-ui-icons/src/iconsSVGs/48/MemoryRam.svg

<svg width="48" height="48" viewBox="0 0 48 48" fill="none" xmlns="http://www.w3.org/2000/svg">
<path fill-rule="evenodd" clip-rule="evenodd" d="M47.33 21.13L48 20.89V13H0V20.89L0.67 21.13C1.44692 21.4247 1.9607 22.1691 1.9607 23C1.9607 23.8309 1.44692 24.5753 0.67 24.87L0 25.11V38H27V36H30V38H48V25.11L47.33 24.87C46.5531 24.5753 46.0393 23.8309 46.0393 23C46.0393 22.1691 46.5531 21.4247 47.33 21.13ZM44 36V34H42V36H41V34H39V36H38V34H36V36H35V34H33V36H32V34H25V36H24V34H22V36H21V34H19V36H18V34H16V36H15V34H13V36H12V34H10V36H9V34H7V36H6V34H4V36H2V33H46V36H44ZM46 19.55C44.7761 20.2681 44.0242 21.5809 44.0242 23C44.0242 24.4191 44.7761 25.7319 46 26.45V31H2V26.45C3.22393 25.7319 3.97577 24.4191 3.97577 23C3.97577 21.5809 3.22393 20.2681 2 19.55V15H46V19.55ZM16 29H22V27H23V25H22V24H23V22H22V21H23V19H22V17H16V19H15V21H16V22H15V24H16V25H15V27H16V29ZM18 19H20V27H18V19ZM5 19V21H6V22H5V24H6V25H5V27H6V29H12V27H13V25H12V24H13V22H12V21H13V19H12V17H6V19H5ZM8 19H10V27H8V19ZM26 29H32V27H33V25H32V24H33V22H32V21H33V19H32V17H26V19H25V21H26V22H25V24H26V25H25V27H26V29ZM28 19H30V27H28V19ZM36 29H42V27H43V25H42V24H43V22H42V21H43V19H42V17H36V19H35V21H36V22H35V24H36V25H35V27H36V29ZM38 19H40V27H38V19ZM5 18H3V16H5V18ZM45 18H43V16H45V18Z"  fill="currentColor"/>
</svg>

<svg xmlns="http://www.w3.org/2000/svg" width="48" height="48" fill="none" viewBox="0 0 48 48"><path fill="currentColor" fill-rule="evenodd" d="m47.33 21.13.67-.24V13H0v7.89l.67.24a2 2 0 0 1 0 3.74l-.67.24V38h27v-2h3v2h18V25.11l-.67-.24a2 2 0 0 1 0-3.74M44 36v-2h-2v2h-1v-2h-2v2h-1v-2h-2v2h-1v-2h-2v2h-1v-2h-7v2h-1v-2h-2v2h-1v-2h-2v2h-1v-2h-2v2h-1v-2h-2v2h-1v-2h-2v2H9v-2H7v2H6v-2H4v2H2v-3h44v3zm2-16.45a4 4 0 0 0 0 6.9V31H2v-4.55a4 4 0 0 0 0-6.9V15h44zM16 29h6v-2h1v-2h-1v-1h1v-2h-1v-1h1v-2h-1v-2h-6v2h-1v2h1v1h-1v2h1v1h-1v2h1zm2-10h2v8h-2zM5 19v2h1v1H5v2h1v1H5v2h1v2h6v-2h1v-2h-1v-1h1v-2h-1v-1h1v-2h-1v-2H6v2zm3 0h2v8H8zm18 10h6v-2h1v-2h-1v-1h1v-2h-1v-1h1v-2h-1v-2h-6v2h-1v2h1v1h-1v2h1v1h-1v2h1zm2-10h2v8h-2zm8 10h6v-2h1v-2h-1v-1h1v-2h-1v-1h1v-2h-1v-2h-6v2h-1v2h1v1h-1v2h1v1h-1v2h1zm2-10h2v8h-2zM5 18H3v-2h2zm40 0h-2v-2h2z" clip-rule="evenodd"/></svg>
